dist/img/logo_welcome-mob.svg

<svg width="259" height="87" viewBox="0 0 259 87" fill="none" xmlns="http://www.w3.org/2000/svg">
<path fill-rule="evenodd" clip-rule="evenodd" d="M53.3994 0H68.047L34.9823 31.7958L56.5624 53.4124H42.5038L22.0303 31.7958L53.3994 0ZM62.7969 11.5042H107.177V53.665H62.7969V11.5042ZM73.8918 19.9363V45.2328H96.0817V19.9363H73.8918ZM113.835 11.5043H125.226L134.989 38.15L144.753 11.5043H156.144L165.907 38.15L175.671 11.5043H187.062L171.603 53.6652H160.212L150.448 27.0195L140.685 53.6652H129.294L113.835 11.5043ZM204.938 11.5046H193.288V53.6656H204.938V11.5046ZM27.2929 11.5044H15.881L0.665039 53.6652H12.077L27.2929 11.5044ZM259.001 11.5043H247.589L241.542 28.2603L225.486 11.5043H211.291L232.583 32.5848H239.981L232.373 53.6652H243.785L259.001 11.5043Z" fill="#F05634"/>
<path d="M102.034 64.5518V67.8803H89.8295V83.4132H98.7054V77.311H94.2674V73.9825H102.034V86.7417H86.501V64.5518H102.034Z" fill="#181818"/>
<path d="M104.826 78.9753C104.826 76.8302 105.528 75.0033 106.934 73.4944C108.339 71.9706 110.04 71.2088 112.037 71.2088C113.975 71.2088 115.639 71.9263 117.03 73.3612V71.2088H120.358V86.7417H117.03V84.5893C115.639 86.0243 113.975 86.7417 112.037 86.7417C110.04 86.7417 108.339 85.9873 106.934 84.4784C105.528 82.9547 104.826 81.1203 104.826 78.9753ZM108.154 78.9753C108.154 80.2031 108.583 81.2534 109.441 82.1262C110.314 82.9842 111.364 83.4132 112.592 83.4132C113.82 83.4132 114.863 82.9842 115.721 82.1262C116.594 81.2534 117.03 80.2031 117.03 78.9753C117.03 77.7474 116.594 76.7045 115.721 75.8465C114.863 74.9737 113.82 74.5373 112.592 74.5373C111.364 74.5373 110.314 74.9737 109.441 75.8465C108.583 76.7045 108.154 77.7474 108.154 78.9753Z" fill="#181818"/>
<path d="M142.011 71.2088C142.322 71.2088 142.581 71.3197 142.788 71.5416C143.01 71.7487 143.121 72.0076 143.121 72.3183V86.7417H139.792V74.5373H134.8V86.7417H131.471V74.5373H126.479V86.7417H123.15V71.2088H142.011Z" fill="#181818"/>
<path d="M148.211 73.4722C149.72 71.9633 151.554 71.2088 153.714 71.2088C155.859 71.2088 157.686 71.9633 159.195 73.4722C160.704 74.9811 161.459 76.808 161.459 78.9531C161.459 79.5448 161.399 80.107 161.281 80.6395H149.565C149.772 81.1721 150.105 81.6602 150.563 82.104C151.421 82.9768 152.464 83.4132 153.692 83.4132C154.92 83.4132 155.97 82.9768 156.843 82.104C156.961 81.9857 157.072 81.8674 157.176 81.749H160.97C160.586 82.7402 159.994 83.6425 159.195 84.4562C157.686 85.9799 155.859 86.7417 153.714 86.7417C151.554 86.7417 149.713 85.9799 148.189 84.4562C146.68 82.9325 145.926 81.0981 145.926 78.9531C145.926 76.808 146.687 74.9811 148.211 73.4722ZM149.565 77.311H157.819C157.612 76.7637 157.287 76.2681 156.843 75.8243C155.97 74.9663 154.92 74.5373 153.692 74.5373C152.464 74.5373 151.421 74.9663 150.563 75.8243C150.105 76.2681 149.772 76.7637 149.565 77.311Z" fill="#181818"/>
<path d="M174.236 71.2088V74.5373H167.312L174.236 83.4132V86.7417H163.141V83.4132H170.308L163.141 74.5373V71.2088H174.236Z" fill="#181818"/>
</svg>

<svg width="259" height="87" fill="none" xmlns="http://www.w3.org/2000/svg"><path fill-rule="evenodd" clip-rule="evenodd" d="M53.4 0h14.647L34.982 31.796l21.58 21.616H42.504L22.03 31.796 53.4 0zm9.397 11.504h44.38v42.161h-44.38v-42.16zm11.095 8.432v25.297h22.19V19.936h-22.19zm39.943-8.432h11.391l9.763 26.646 9.764-26.646h11.391l9.763 26.646 9.764-26.646h11.391l-15.459 42.161h-11.391l-9.764-26.645-9.763 26.645h-11.391l-15.459-42.16zm91.103 0h-11.65v42.162h11.65V11.505zm-177.645 0H15.88L.665 53.665h11.412l15.216-42.16zm231.708 0h-11.412l-6.047 16.756-16.056-16.756h-14.195l21.292 21.08h7.398l-7.608 21.081h11.412l15.216-42.16z" fill="#F05634"/><path d="M102.034 64.552v3.328H89.829v15.533h8.876v-6.102h-4.438v-3.329h7.767v12.76H86.501v-22.19h15.533zm2.792 14.423c0-2.145.702-3.972 2.108-5.48 1.405-1.524 3.106-2.286 5.103-2.286 1.938 0 3.602.717 4.993 2.152V71.21h3.328v15.533h-3.328V84.59c-1.391 1.435-3.055 2.153-4.993 2.153-1.997 0-3.698-.755-5.103-2.264-1.406-1.523-2.108-3.358-2.108-5.503zm3.328 0c0 1.228.429 2.278 1.287 3.151.873.858 1.923 1.287 3.151 1.287 1.228 0 2.271-.429 3.129-1.287.873-.873 1.309-1.923 1.309-3.15 0-1.229-.436-2.272-1.309-3.13-.858-.872-1.901-1.309-3.129-1.309s-2.278.437-3.151 1.31c-.858.858-1.287 1.9-1.287 3.128zm33.857-7.766c.311 0 .57.11.777.333.222.207.333.466.333.776v14.424h-3.329V74.537H134.8v12.205h-3.329V74.537h-4.992v12.205h-3.329V71.209h18.861zm6.2 2.263c1.509-1.509 3.343-2.263 5.503-2.263 2.145 0 3.972.754 5.481 2.263 1.509 1.51 2.264 3.336 2.264 5.481 0 .592-.06 1.154-.178 1.686h-11.716c.207.533.54 1.021.998 1.465.858.873 1.901 1.31 3.129 1.31s2.278-.437 3.151-1.31c.118-.118.229-.237.333-.355h3.794c-.384.991-.976 1.894-1.775 2.707-1.509 1.524-3.336 2.286-5.481 2.286-2.16 0-4.001-.762-5.525-2.286-1.509-1.523-2.263-3.358-2.263-5.503s.761-3.972 2.285-5.48zm1.354 3.839h8.254a4.182 4.182 0 00-.976-1.487c-.873-.858-1.923-1.287-3.151-1.287-1.228 0-2.271.43-3.129 1.287a4.07 4.07 0 00-.998 1.487zm24.671-6.102v3.328h-6.924l6.924 8.876v3.329h-11.095v-3.329h7.167l-7.167-8.876V71.21h11.095z" fill="#181818"/></svg>
